!!!COM: Gonzaga, Francisca
!!!CDT: 1847/10/17-1935/02/28
!!!OTL: Só na flauta
**kern	**kern
*part2	*part1
*staff2	*staff1
*>[Intro,A,A1,A,A2,B,Intro,A,A1,A,A2,B]	*>[Intro,A,A1,A,A2,B,Intro,A,A1,A,A2,B]
*>Intro	*
*clefF4	*clefG2
*k[b-]	*k[b-]
*M2/4	*M2/4
=1	=1
*F:	*
!	!LO:TX:a:B:t=Tranquillo
8.gL 8.b-	16ccKL
.	8cc
16gJk 16b-	16ccJk
8.f#XL 8.a	16ccKL
.	8cc
16f#Jk 16a	16ccJk
=2	=2
8.fL 8.a-X	16ccKL
.	8cc
16fJk 16a-	16ccJk
[4e [4g	16ccKL
.	8cc
.	16ccJk
=3	=3
4e] 4g]	16ccKL
.	8cc
.	16ccJk
8C'	8r
8r;	8r;
=4!|:	=4!|:
*>A	*
4r	16r
.	8dddL
.	16cccJk
16cKL 16f 16a	16aaKL
8c 8f 8a	8ff
16cJk 16f 16a	16ccJk
=5	=5
*	*^
8BnL 8d 8g	4aa^	8aaL
16BL 16d 16g	.	16bnL 16dd
16BJJ 16d 16g	.	16bJJ 16dd
8BL 8d 8g	4gg^	8ggL
16BL 16d 16g	.	16bL 16dd
16BJJ 16d 16g	.	16bJJ 16dd
*	*v	*v
=6	=6
16B-KL	16r
8c 8e 8g	8ff#XL
16cJk 16e 16g	16ggJk
16cKL 16e 16g	16aaKL
8c 8e 8g	8gg
16cJk 16e 16g	16eeJk
=7	=7
*	*^
8AL	4dd^	8ddL
16cL	.	16fL 16a
16cJJ	.	16fJJ 16a
8AL	4cc^	8ccL
16cL	.	16fL 16a
16cJJ	.	16fJJ 16a
*	*v	*v
=8	=8
16CKL	16r
8A 8c 8f	8aL
16AJk 16c 16f	16b-Jk
16AKL 16c 16f	16ccKL
8A 8c 8f	8dd
16AJk 16c 16f	16ccJk
=9	=9
*	*^
8D^L	4ff^	8ffL
16FL 16B- 16d	.	16fL 16b-
16FJJ 16B- 16d	.	16fJJ 16b-
8D^L	4ff^	8ffL
16FL 16B- 16d	.	16fL 16b-
16D^JJ	.	16fJJ 16b-
*	*v	*v
=10	=10
16EKL	16r
8B- 8c 8e	8gL
16B-Jk 16c 16e	16aJk
16CKL	16b-KL
8B- 8c 8e	8dd
16B-Jk 16c 16e	16b-Jk
=11	=11
*	*^
8CL	4ee^	8eeL
16FL 16A 16c	.	16fL 16a
16FJJ 16A 16c	.	16fJJ 16a
8CL	4cc^	8ccL
16FL 16A 16c	.	16fL 16a
16FJJ 16A 16c	.	16fJJ 16a
*	*v	*v
!!linebreak:original
=12	=12
16FKL	16r
8A 8c 8f	8dddL
16AJk 16c 16f	16cccJk
16AKL 16c 16f	16aaKL
8A 8c 8f	8ff
16AJk 16c 16f	16ccJk
=13	=13
*	*^
8DL 8Bn	4aa^	8aaL
16FL 16B 16d	.	16bnL 16dd
16FJJ 16B 16d	.	16bJJ 16dd
8DL 8B	4gg^	8ggL
16FL 16B 16d	.	16bL 16dd
16FJJ 16B 16d	.	16bJJ 16dd
*	*v	*v
=14	=14
16EKL 16B-	16r
8B- 8c 8e	8ff#XL
16B-Jk 16c 16e	16ggJk
16B-KL 16c 16e	16aaKL
8B- 8c 8e	8gg
16B-Jk 16c 16e	16eeJk
=15	=15
*	*^
8CL 8A	4dd^	8ddL
16FL 16A 16c	.	16fL 16a
16FJJ 16A 16c	.	16fJJ 16a
8FL 8A 8c	4cc^	8ccL
16FL 16A 16c	.	16fL 16a
16FJJ 16A 16c	.	16fJJ 16a
*	*v	*v
=16	=16
16BB-KL	16r
8G 8B- 8d	8ddL
16GJk 16B- 16d	16eeJk
16DKL	16ffKL
8G 8B- 8d	8ee
16GJk 16B- 16d	16ddJk
=17	=17
16CKL	16ccKL
8A 8c 8f	8a
16AJk 16c 16f	16b-Jk
8AL 8c 8f	4cc
8AJ 8c 8f	.
=18	=18
16CKL	16gKL
8B- 8c 8e	8a
16B-Jk 16c 16e	16b-Jk
16B-KL 16c 16e	16ccKL
8B- 8c 8e	8dd
16B-Jk 16c 16e	16eeJk
=19	=19
*>A1	*
16FFKL	2ff
8F 8A 8c	.
16FJk 16A 16c	.
16CKL	.
8F 8A 8c	.
16FJk 16A 16c	.
=20:|!	=20:|!
*>A2	*
8F 8A 8c	8a 8ff
8r	16r
.	16f
4r	16fKL
.	8g
.	16fJk
=21||	=21||
*>B	*
*B-:	*
*k[b-e-]	*k[b-e-]
8E-^L	8ee-^L
16FL 16A 16e-	16fL 16a
16FJJ 16A 16e-	16fJJ 16a
8E-^L	8ff^L
16FL 16A 16e-	16fL 16a
16E-^JJ	16fJJ 16a
=22	=22
16DLL	16dd^LL
16FJJ 16B- 16d	16fJJ 16b-
8r	16r
.	16d
4r	16dKL
.	8e-
.	16dJk
=23	=23
8DL	8f#XL 8a 8cc
16F#XL 16A 16c	16dL
16F#JJ 16A 16c	16dJJ
8DL	8f#L 8a 8dd
16F#L 16A 16c	16dL
16F#JJ 16A 16c	16dJJ
=24	=24
16GGLL	16gLL 16b-
16DJJ 16G 16B-	16dJJ
8r	16r
.	16g
4r	16gKL
.	8a
.	16gJk
=25	=25
16EnKL	16b-KL
8G 8B-	8en 8g
16GJk 16B-	16gJk
16EKL 16G 16B-	16gKL
8E 8G 8B-	8a
16EJk 16G 16B-	16gJk
=26	=26
8FFL	8b-L
16DL 16F 16B-	16dL 16f
16DJJ 16F 16B-	16dJJ
16DKL 16F 16B-	16dKL
8D 8F 8B-	8e-
16DJk 16F 16B-	16fJk
=27	=27
16CKL	8.aL
8E- 8F 8A	.
16E-Jk 16F 16A	16gJk
16AAKL	16gKL
8E- 8F 8A	8g
16E-Jk 16F 16A	16g-XJk
=28	=28
16DLL	8f
16FJJ 16B-	.
8r	16r
.	16f
4r	16fKL
.	8g
.	16fJk
=29	=29
8E-^L	8ee-^L
16FL 16A 16e-	16fL 16a
16FJJ 16A 16e-	16fJJ 16a
8E-^L	8ff^L
16FL 16A 16e-	16fL 16a
16E-^JJ	16fJJ 16a
=30	=30
16DLL	16dd^LL
16FJJ 16B- 16d	16fJJ 16b-
8r	16r
.	16d
4r	16dKL
.	8e-
.	16dJk
=31	=31
8DL	8f#XL 8a 8cc
16F#XL 16A 16c	16dL
16F#JJ 16A 16c	16dJJ
8DL	8f#L 8a 8dd
16F#L 16A 16c	16dL
16F#JJ 16A 16c	16dJJ
=32	=32
16GGLL	16gLL 16b-
16DJJ 16G 16B-	16dJJ
8r	16r
.	16g
4r	16gKL
.	8a
.	16gJk
=33	=33
16EnKL	16b-KL
8E 8G 8B-	8en 8g
16EJk 16G 16B-	16gJk
16EKL 16G 16B-	16gKL
8E 8G 8B-	8a
16EJk 16G 16B-	16gJk
=34	=34
16DKL	16b-KL
8F 8B-	8d 8f
16FJk 16B-	16dJk
16DKL 16F 16B-	16dKL
8D 8F 8B-	8e-
16DJk 16F 16B-	16fJk
=35	=35
16FFKL	16aKL
8E- 8F 8A	8g
16E-Jk 16F 16A	16dJk
16E-KL 16F 16A	16fKL
8E- 8F 8A	8e-
16FFJk	16ccJk
=36	=36
4D 4F 4B-	4b-
4BBB-	4b- 4dd 4ff 4bb-
==	==
*-	*-
!!!system-decoration: {(s1,s2)}
!!!AGN: Tango
!!!EED: Florian Moldaschl
!!!END: 2025/12/26
!!!ENC: Florian Moldaschl
!!!EEV: 2026/01/14
!!!title: @{OPR}, @{SCT} №@{ONM}